Catalina-dark/actions/16/view-more-horizontal.svg

<svg width="16" height="16" version="1.1" viewBox="0 0 16 16" xmlns="http://www.w3.org/2000/svg">
<defs>
<style id="current-color-scheme" type="text/css">.ColorScheme-Text { color:#5c616c; } .ColorScheme-Highlight { color:#5294e2; }</style>
</defs>
<path class="ColorScheme-Text" d="m3.5 7c-0.82235 0-1.5 0.67765-1.5 1.5s0.67765 1.5 1.5 1.5 1.5-0.67765 1.5-1.5-0.67765-1.5-1.5-1.5zm4 0c-0.82235 0-1.5 0.67765-1.5 1.5s0.67765 1.5 1.5 1.5 1.5-0.67765 1.5-1.5-0.67765-1.5-1.5-1.5zm4 0c-0.82235 0-1.5 0.67765-1.5 1.5s0.67765 1.5 1.5 1.5 1.5-0.67765 1.5-1.5-0.67765-1.5-1.5-1.5z" fill="#dedede" fill-opacity=".85098"/>
</svg>

<?xml version="1.0" encoding="UTF-8" standalone="no"?>
<svg
   xmlns:dc="http://purl.org/dc/elements/1.1/"
   xmlns:cc="http://creativecommons.org/ns#"
   xmlns:rdf="http://www.w3.org/1999/02/22-rdf-syntax-ns#"
   xmlns:svg="http://www.w3.org/2000/svg"
   xmlns="http://www.w3.org/2000/svg"
   xmlns:sodipodi="http://sodipodi.sourceforge.net/DTD/sodipodi-0.dtd"
   xmlns:inkscape="http://www.inkscape.org/namespaces/inkscape"
   width="16"
   height="16"
   viewBox="0 0 16 16"
   version="1.1"
   id="svg7"
   sodipodi:docname="view-more-horizontal.svg"
   inkscape:version="0.92.4 5da689c313, 2019-01-14">
  <metadata
     id="metadata11">
    <rdf:RDF>
      <cc:Work
         rdf:about="">
        <dc:format>image/svg+xml</dc:format>
        <dc:type
           rdf:resource="http://purl.org/dc/dcmitype/StillImage" />
      </cc:Work>
    </rdf:RDF>
  </metadata>
  <sodipodi:namedview
     pagecolor="#ffffff"
     bordercolor="#666666"
     borderopacity="1"
     objecttolerance="10"
     gridtolerance="10"
     guidetolerance="10"
     inkscape:pageopacity="0"
     inkscape:pageshadow="2"
     inkscape:window-width="640"
     inkscape:window-height="480"
     id="namedview9"
     showgrid="false"
     inkscape:zoom="14.75"
     inkscape:cx="6.8135593"
     inkscape:cy="8"
     inkscape:window-x="0"
     inkscape:window-y="26"
     inkscape:window-maximized="0"
     inkscape:current-layer="svg7" />
  <defs
     id="defs3">
    <style
       id="current-color-scheme"
       type="text/css">
   .ColorScheme-Text { color:#5c616c; } .ColorScheme-Highlight { color:#5294e2; }
  </style>
  </defs>
  <path
     style="fill:#f1f6f8;fill-opacity:0.8509804"
     class="ColorScheme-Text"
     d="M 3.5 7 C 2.67765 7 2 7.67765 2 8.5 C 2 9.32235 2.67765 10 3.5 10 C 4.32235 10 5 9.32235 5 8.5 C 5 7.67765 4.32235 7 3.5 7 z M 7.5 7 C 6.67765 7 6 7.67765 6 8.5 C 6 9.32235 6.67765 10 7.5 10 C 8.32235 10 9 9.32235 9 8.5 C 9 7.67765 8.32235 7 7.5 7 z M 11.5 7 C 10.67765 7 10 7.67765 10 8.5 C 10 9.32235 10.67765 10 11.5 10 C 12.32235 10 13 9.32235 13 8.5 C 13 7.67765 12.32235 7 11.5 7 z"
     id="path5" />
</svg>
